X:1
T: Brian Titus' Hornpipe
C:whistle part                                                    Bruce Shawyer
R:Reel
Q:232
K:D
M:4/4
L:1/16
z4|z16|z16|z16|z16|
z16|z16|z16|z12d2e2|
f2e2d2e2 f2d2e2f2|g2f2e2f2 g2e2a2g2|f2e2d2e2 f2d2e2f2|g2f2e2d2 c2A2d2e2|
f2e2d2e2 f2d2e2f2|g2f2e2f2 g2e2a2g2|f2e2a2f2 e2f2g2c2|f2e2d2c2 d4z4|
z16|z16|z16|z16|
z16|z16|z16|z12d'2g'2|
f'2g'2a'2g'2 f'2a'2g'2f'2|g'2a'2b'2a'2 g'2b'2a'2g'2|f'2g'2a'2g'2 f'2a'2g'2f'2|g'2f'2e'2d'2 c'2A'2a'2g'2|
f'2g'2a'2g'2 f'2a'2g'2f'2|g'2a'2b'2a'2 g'2b'2a'2f'2|f'2e'2a'2f'2 e'2f'2g'2c'2|f'2e'2d'2c'2 d'4||
